!!!OTL: ?
!! From: "Folk Songs of the Southern Appalachians;
!! As Sung by Jean Ritchie"  2nd Edition.
!! University of Kentucky Press, 1997.
**kern
*clefG2
*k[]
*d:
*M3/4
{8g
8a
8cc
=1
4.dd
8ee
8dd
(16cc
16a)
=2
4.g}
{16g
16g
8a
8cc
=3
4.dd
(16ee
16dd)
(8cc
16a
16g)
=4
*M2/4
2.a}
=5
*M3/4
{(8.dd
16cc
4a)
=6
8cc
8g
8a
16e
16e
(8g;
qa)
(16e
16d)
=7
4.c}
{16d
16d
8e
8g
=8
*M2/4
(8.a
16g
8e)
(16g
16e)
=9
*M3/4
4d
4d}
4r
=10
4r
8r
==
*-
